mimes/48/application-pdf.svg

<?xml version="1.0" encoding="UTF-8" standalone="no"?>
<!-- Created with Inkscape (http://www.inkscape.org/) -->

<svg
   xmlns:dc="http://purl.org/dc/elements/1.1/"
   xmlns:cc="http://creativecommons.org/ns#"
   xmlns:rdf="http://www.w3.org/1999/02/22-rdf-syntax-ns#"
   xmlns:svg="http://www.w3.org/2000/svg"
   xmlns="http://www.w3.org/2000/svg"
   xmlns:xlink="http://www.w3.org/1999/xlink"
   xmlns:inkscape="http://www.inkscape.org/namespaces/inkscape"
   version="1.1"
   width="48"
   height="48"
   id="svg4112">
  <defs
     id="defs4114">
    <linearGradient
       x1="23.99999"
       y1="5.5641499"
       x2="23.99999"
       y2="43"
       id="linearGradient3988"
       xlink:href="#linearGradient3977"
       gradientUnits="userSpaceOnUse"
       gradientTransform="matrix(0.89189189,0,0,1.1351351,2.5945999,-4.7432315)" />
    <linearGradient
       id="linearGradient3977">
      <stop
         id="stop3979"
         style="stop-color:#ffffff;stop-opacity:1"
         offset="0" />
      <stop
         id="stop3981"
         style="stop-color:#ffffff;stop-opacity:0.23529412"
         offset="0.03626217" />
      <stop
         id="stop3983"
         style="stop-color:#ffffff;stop-opacity:0.15686275"
         offset="0.95056331" />
      <stop
         id="stop3985"
         style="stop-color:#ffffff;stop-opacity:0.39215687"
         offset="1" />
    </linearGradient>
    <radialGradient
       cx="605.71429"
       cy="486.64789"
       r="117.14286"
       fx="605.71429"
       fy="486.64789"
       id="radialGradient3327"
       xlink:href="#linearGradient5060"
       gradientUnits="userSpaceOnUse"
       gradientTransform="matrix(0.02303995,0,0,0.01470022,26.360882,37.040176)" />
    <linearGradient
       id="linearGradient5060">
      <stop
         id="stop5062"
         style="stop-color:#000000;stop-opacity:1"
         offset="0" />
      <stop
         id="stop5064"
         style="stop-color:#000000;stop-opacity:0"
         offset="1" />
    </linearGradient>
    <radialGradient
       cx="605.71429"
       cy="486.64789"
       r="117.14286"
       fx="605.71429"
       fy="486.64789"
       id="radialGradient3330"
       xlink:href="#linearGradient5060"
       gradientUnits="userSpaceOnUse"
       gradientTransform="matrix(-0.02303994,0,0,0.01470022,21.62311,37.040176)" />
    <linearGradient
       id="linearGradient5048">
      <stop
         id="stop5050"
         style="stop-color:#000000;stop-opacity:0"
         offset="0" />
      <stop
         id="stop5056"
         style="stop-color:#000000;stop-opacity:1"
         offset="0.5" />
      <stop
         id="stop5052"
         style="stop-color:#000000;stop-opacity:0"
         offset="1" />
    </linearGradient>
    <linearGradient
       x1="302.85715"
       y1="366.64789"
       x2="302.85715"
       y2="609.50507"
       id="linearGradient4110"
       xlink:href="#linearGradient5048"
       gradientUnits="userSpaceOnUse"
       gradientTransform="matrix(0.06732488,0,0,0.01470022,-0.3411391,37.040146)" />
    <linearGradient
       id="linearGradient4246-9">
      <stop
         id="stop4248-6"
         style="stop-color:#ffffff;stop-opacity:1"
         offset="0" />
      <stop
         id="stop4250-1"
         style="stop-color:#dcdcdc;stop-opacity:1"
         offset="1" />
    </linearGradient>
    <linearGradient
       x1="23.969797"
       y1="3.9810441"
       x2="23.969797"
       y2="44.024017"
       id="linearGradient3159"
       xlink:href="#linearGradient4246-9"
       gradientUnits="userSpaceOnUse"
       gradientTransform="matrix(0.92105264,0,0,1.1298612,2.3970781,-4.6493067)" />
    <radialGradient
       cx="7.4956832"
       cy="8.4497671"
       r="19.99999"
       fx="7.4956832"
       fy="8.4497671"
       id="radialGradient4023-5"
       xlink:href="#linearGradient3242-7-5-0-3"
       gradientUnits="userSpaceOnUse"
       gradientTransform="matrix(0,2.8679067,-3.4313694,-1.6296548e-7,52.994372,-20.339697)" />
    <linearGradient
       id="linearGradient3242-7-5-0-3">
      <stop
         id="stop3244-6-7-3-3"
         style="stop-color:#f89b7e;stop-opacity:1"
         offset="0" />
      <stop
         id="stop3246-5-0-7-8"
         style="stop-color:#e35d4f;stop-opacity:1"
         offset="0.26238" />
      <stop
         id="stop3248-6-8-8-3"
         style="stop-color:#c6262e;stop-opacity:1"
         offset="0.66093999" />
      <stop
         id="stop3250-9-1-8-7"
         style="stop-color:#690b2c;stop-opacity:1"
         offset="1" />
    </linearGradient>
    <linearGradient
       x1="24"
       y1="44"
       x2="24"
       y2="3.8990016"
       id="linearGradient4025-9"
       xlink:href="#linearGradient2490-3-9-0-3"
       gradientUnits="userSpaceOnUse"
       gradientTransform="matrix(0.8974359,0,0,1.1282051,2.461538,-4.5769228)" />
    <linearGradient
       id="linearGradient2490-3-9-0-3">
      <stop
         id="stop2492-7-7-4-7"
         style="stop-color:#791235;stop-opacity:1"
         offset="0" />
      <stop
         id="stop2494-4-8-6-8"
         style="stop-color:#dd3b27;stop-opacity:1"
         offset="1" />
    </linearGradient>
  </defs>
  <metadata
     id="metadata4117">
    <rdf:RDF>
      <cc:Work
         rdf:about="">
        <dc:format>image/svg+xml</dc:format>
        <dc:type
           rdf:resource="http://purl.org/dc/dcmitype/StillImage" />
        <dc:title />
      </cc:Work>
    </rdf:RDF>
  </metadata>
  <g
     id="layer1">
    <rect
       width="32.508301"
       height="3.5700529"
       x="7.7378473"
       y="42.429947"
       id="rect2879"
       style="opacity:0.3;fill:url(#linearGradient4110);fill-opacity:1;fill-rule:nonzero;stroke:none;stroke-width:1;marker:none;visibility:visible;display:inline;overflow:visible" />
    <path
       d="m 7.7378475,42.430102 c 0,0 0,3.569856 0,3.569856 -1.1865002,0.0067 -2.8683795,-0.799823 -2.8683795,-1.785158 0,-0.985333 1.3240446,-1.784697 2.8683795,-1.784698 z"
       inkscape:connector-curvature="0"
       id="path2881"
       style="opacity:0.3;fill:url(#radialGradient3330);fill-opacity:1;fill-rule:nonzero;stroke:none;stroke-width:1;marker:none;visibility:visible;display:inline;overflow:visible" />
    <path
       d="m 40.246148,42.430102 c 0,0 0,3.569856 0,3.569856 1.1865,0.0067 2.86838,-0.799823 2.86838,-1.785158 0,-0.985333 -1.324045,-1.784697 -2.86838,-1.784698 z"
       inkscape:connector-curvature="0"
       id="path2883"
       style="opacity:0.3;fill:url(#radialGradient3327);fill-opacity:1;fill-rule:nonzero;stroke:none;stroke-width:1;marker:none;visibility:visible;display:inline;overflow:visible" />
    <path
       d="M 6.4999609,0.49719893 C 14.520256,0.49719893 41.5,0.5 41.5,0.5 l 4.2e-5,44.002803 c 0,0 -23.333387,0 -35.0000811,0 0,-14.668535 0,-29.33707 0,-44.00560407 z"
       inkscape:connector-curvature="0"
       id="path4160"
       style="color:#000000;fill:url(#radialGradient4023-5);fill-opacity:1;fill-rule:nonzero;stroke:url(#linearGradient4025-9);stroke-width:1;stroke-linecap:round;stroke-linejoin:round;stroke-miterlimit:4;stroke-opacity:1;stroke-dasharray:none;stroke-dashoffset:0;marker:none;visibility:visible;display:inline;overflow:visible;enable-background:accumulate" />
    <path
       d="m 40.5,43.5 -33,0 0,-41.9999999 33,0 z"
       inkscape:connector-curvature="0"
       id="rect6741-1"
       style="opacity:0.5;fill:none;stroke:url(#linearGradient3988);stroke-width:1;stroke-linecap:round;stroke-linejoin:round;stroke-miterlimit:4;stroke-opacity:1;stroke-dasharray:none;stroke-dashoffset:0" />
    <path
       d="M 28.013854,4.4548556 C 16.084163,17.030912 9.2691614,18.806076 7.0023413,19.00182 l 0,4.519444 C 8.7133366,23.227759 13.014124,22.2086 17.594446,18.684046 23.467679,14.164602 30.489183,5.584716 30.489183,5.584716 28.669485,9.9700345 28.077108,24.557933 27.985071,44 l 12.175165,0 c 0.465395,0 0.885286,-0.218174 1.208882,-0.564931 -1.916296,-5.637596 -3.251885,-13.050945 -4.259869,-19.772572 -0.955597,-8.909 0.455462,-16.6980653 0.978619,-19.2076414 l -10.074014,0 z M 7.0023413,26.381226 l 0,4.978451 C 11.29446,31.359677 17.596208,36.864475 21.595269,44 l 3.453947,0 C 21.099278,36.216281 10.278992,26.381226 7.0023413,26.381226 z"
       inkscape:connector-curvature="0"
       id="path6711-0-7-1-0"
       style="opacity:0.05;fill:#000000;fill-opacity:1;fill-rule:evenodd;stroke:none" />
    <path
       d="M 28.013854,3.3249943 C 16.084163,15.901051 9.2691614,17.676215 7.0023413,17.871959 l 0,4.519445 C 8.7133366,22.097897 13.014124,21.078738 17.594446,17.554185 23.467679,13.034741 30.489183,4.4548556 30.489183,4.4548556 28.634155,8.9253172 28.059024,23.988046 27.985071,44 l 12.175165,0 c 0.607917,0 1.132813,-0.364206 1.467928,-0.918012 C 39.562586,37.3638 38.164228,29.567649 37.109249,22.532636 36.153652,13.623635 37.564711,5.8345705 38.087868,3.3249943 l -10.074014,0 z M 7.0023413,25.251365 l 0,4.978451 C 11.520277,30.229816 18.256591,36.317277 22.19971,44 l 3.367598,0 C 22.176813,36.076098 10.441708,25.251365 7.0023413,25.251365 z"
       inkscape:connector-curvature="0"
       id="path6711-0-7-4"
       style="opacity:0.1;fill:#000000;fill-opacity:1;fill-rule:evenodd;stroke:none" />
    <path
       d="M 28,2.1875 C 16.070309,14.763557 9.2668201,16.554256 7,16.75 l 0,4.5 C 8.7109953,20.956493 13.013428,19.962054 17.59375,16.4375 23.466983,11.918055 30.5,3.3125 30.5,3.3125 28.60963,7.8681305 28.024412,23.414766 27.96875,44 l 12.1875,0 C 40.460157,44 40.747746,43.9083 41,43.75 l 0,-3.625 c -1.731206,-5.489072 -2.959735,-12.407019 -3.90625,-18.71875 -0.955597,-8.909001 0.476843,-16.7091745 1,-19.21875 L 28,2.1875 z M 7,24.125 7,29.09375 c 4.737576,0 11.911988,6.697282 15.75,14.90625 l 3.28125,0 C 23.361565,36.023776 10.604461,24.125 7,24.125 z"
       inkscape:connector-curvature="0"
       id="path6711-0-2"
       style="opacity:0.25;fill:#000000;fill-opacity:1;fill-rule:evenodd;stroke:none" />
    <path
       d="M 28,1 C 16.070309,13.576056 9.2668201,15.366756 7,15.5625 l 0,4.5 C 8.7109953,19.768994 13.013428,18.743304 17.59375,15.21875 23.466983,10.699305 30.5,2.125 30.5,2.125 28.574299,6.7657754 28.005957,22.776148 27.96875,43.9375 l 12.3125,0 c 0.262781,0 0.4972,-0.0623 0.71875,-0.1875 l 0,-4.84375 C 39.27553,33.420271 38.038036,26.515614 37.09375,20.21875 36.138153,11.309749 37.570593,3.5095755 38.09375,1 L 28,1 z m -21,21.90625 0,5 c 4.952659,0 12.566711,7.315678 16.25,16.03125 l 3.09375,0 C 24.613064,36.014194 10.77848,22.90625 7,22.90625 z"
       inkscape:connector-curvature="0"
       id="path6711-2"
       style="fill:url(#linearGradient3159);fill-opacity:1;fill-rule:evenodd;stroke:none" />
    <path
       d="M 38.625,1.0625 C 33.936005,4.5720397 18.590986,15.260415 7,13.90625 l 0,9.6875 c 0,0 24.046646,4.409644 34,-3.71875 L 41,1.3125 c -0.252178,-0.1585819 -0.539843,-0.25 -0.84375,-0.25 l -1.53125,0 z"
       inkscape:connector-curvature="0"
       id="path6713-2"
       style="opacity:0.1;fill:#000000;fill-opacity:1;fill-rule:evenodd;stroke:none" />
    <path
       d="M 41,24.3125 C 36.686101,29.820329 32.381862,36.794261 29.4375,44 l 3.6875,0 C 35.407138,39.263471 38.313026,34.121968 41,30.5 l 0,-6.1875 z"
       inkscape:connector-curvature="0"
       id="path6715-0"
       style="opacity:0.1;fill:#000000;fill-opacity:1;fill-rule:evenodd;stroke:none" />
  </g>
</svg>

<?xml version="1.0" encoding="UTF-8" standalone="no"?>
<!-- Created with Inkscape (http://www.inkscape.org/) -->

<svg
   xmlns:dc="http://purl.org/dc/elements/1.1/"
   xmlns:cc="http://creativecommons.org/ns#"
   xmlns:rdf="http://www.w3.org/1999/02/22-rdf-syntax-ns#"
   xmlns:svg="http://www.w3.org/2000/svg"
   xmlns="http://www.w3.org/2000/svg"
   xmlns:xlink="http://www.w3.org/1999/xlink"
   xmlns:sodipodi="http://sodipodi.sourceforge.net/DTD/sodipodi-0.dtd"
   xmlns:inkscape="http://www.inkscape.org/namespaces/inkscape"
   width="48px"
   height="48px"
   id="svg4112"
   version="1.1"
   inkscape:version="0.48.2 r9819"
   sodipodi:docname="application-pdf.svg">
  <defs
     id="defs4114">
    <linearGradient
       inkscape:collect="always"
       xlink:href="#linearGradient3977"
       id="linearGradient3988"
       gradientUnits="userSpaceOnUse"
       gradientTransform="matrix(0.89189189,0,0,1.1351351,2.5945999,-4.7432315)"
       x1="23.99999"
       y1="5.5641499"
       x2="23.99999"
       y2="43" />
    <linearGradient
       id="linearGradient3977">
      <stop
         offset="0"
         style="stop-color:#ffffff;stop-opacity:1;"
         id="stop3979" />
      <stop
         id="stop3981"
         style="stop-color:#ffffff;stop-opacity:0.23529412;"
         offset="0.03626217" />
      <stop
         offset="0.95056331"
         style="stop-color:#ffffff;stop-opacity:0.15686275;"
         id="stop3983" />
      <stop
         offset="1"
         style="stop-color:#ffffff;stop-opacity:0.39215687;"
         id="stop3985" />
    </linearGradient>
    <radialGradient
       inkscape:collect="always"
       xlink:href="#linearGradient5060"
       id="radialGradient3327"
       gradientUnits="userSpaceOnUse"
       gradientTransform="matrix(0.02303995,0,0,0.01470022,26.360882,37.040176)"
       cx="605.71429"
       cy="486.64789"
       fx="605.71429"
       fy="486.64789"
       r="117.14286" />
    <linearGradient
       id="linearGradient5060">
      <stop
         id="stop5062"
         style="stop-color:#000000;stop-opacity:1"
         offset="0" />
      <stop
         id="stop5064"
         style="stop-color:#000000;stop-opacity:0"
         offset="1" />
    </linearGradient>
    <radialGradient
       inkscape:collect="always"
       xlink:href="#linearGradient5060"
       id="radialGradient3330"
       gradientUnits="userSpaceOnUse"
       gradientTransform="matrix(-0.02303994,0,0,0.01470022,21.62311,37.040176)"
       cx="605.71429"
       cy="486.64789"
       fx="605.71429"
       fy="486.64789"
       r="117.14286" />
    <linearGradient
       id="linearGradient5048">
      <stop
         id="stop5050"
         style="stop-color:#000000;stop-opacity:0"
         offset="0" />
      <stop
         id="stop5056"
         style="stop-color:#000000;stop-opacity:1"
         offset="0.5" />
      <stop
         id="stop5052"
         style="stop-color:#000000;stop-opacity:0"
         offset="1" />
    </linearGradient>
    <linearGradient
       y2="609.50507"
       x2="302.85715"
       y1="366.64789"
       x1="302.85715"
       gradientTransform="matrix(0.06732488,0,0,0.01470022,-0.3411391,37.040146)"
       gradientUnits="userSpaceOnUse"
       id="linearGradient4110"
       xlink:href="#linearGradient5048"
       inkscape:collect="always" />
    <linearGradient
       id="linearGradient4246-9">
      <stop
         offset="0"
         style="stop-color:#ffffff;stop-opacity:1"
         id="stop4248-6" />
      <stop
         offset="1"
         style="stop-color:#dcdcdc;stop-opacity:1"
         id="stop4250-1" />
    </linearGradient>
    <linearGradient
       inkscape:collect="always"
       xlink:href="#linearGradient4246-9"
       id="linearGradient3159"
       gradientUnits="userSpaceOnUse"
       gradientTransform="matrix(0.92105264,0,0,1.1298612,2.3970781,-4.6493067)"
       x1="23.969797"
       y1="3.9810441"
       x2="23.969797"
       y2="44.024017" />
    <radialGradient
       r="19.99999"
       fy="8.4497671"
       fx="7.4956832"
       cy="8.4497671"
       cx="7.4956832"
       gradientTransform="matrix(0,2.8679067,-3.4313694,-1.6296548e-7,52.994372,-20.339697)"
       gradientUnits="userSpaceOnUse"
       id="radialGradient4023-5"
       xlink:href="#linearGradient3242-7-5-0-3"
       inkscape:collect="always" />
    <linearGradient
       id="linearGradient3242-7-5-0-3">
      <stop
         offset="0"
         style="stop-color:#f89b7e;stop-opacity:1"
         id="stop3244-6-7-3-3" />
      <stop
         offset="0.26238"
         style="stop-color:#e35d4f;stop-opacity:1"
         id="stop3246-5-0-7-8" />
      <stop
         offset="0.66093999"
         style="stop-color:#c6262e;stop-opacity:1"
         id="stop3248-6-8-8-3" />
      <stop
         offset="1"
         style="stop-color:#690b2c;stop-opacity:1"
         id="stop3250-9-1-8-7" />
    </linearGradient>
    <linearGradient
       y2="3.8990016"
       x2="24"
       y1="44"
       x1="24"
       gradientTransform="matrix(0.8974359,0,0,1.1282051,2.461538,-4.5769228)"
       gradientUnits="userSpaceOnUse"
       id="linearGradient4025-9"
       xlink:href="#linearGradient2490-3-9-0-3"
       inkscape:collect="always" />
    <linearGradient
       id="linearGradient2490-3-9-0-3">
      <stop
         offset="0"
         style="stop-color:#791235;stop-opacity:1"
         id="stop2492-7-7-4-7" />
      <stop
         offset="1"
         style="stop-color:#dd3b27;stop-opacity:1"
         id="stop2494-4-8-6-8" />
    </linearGradient>
  </defs>
  <sodipodi:namedview
     id="base"
     pagecolor="#ffffff"
     bordercolor="#666666"
     borderopacity="1.0"
     inkscape:pageopacity="0.0"
     inkscape:pageshadow="2"
     inkscape:zoom="7.9991455"
     inkscape:cx="19.687039"
     inkscape:cy="31.071823"
     inkscape:current-layer="layer1"
     showgrid="false"
     inkscape:grid-bbox="true"
     inkscape:document-units="px"
     inkscape:window-width="1280"
     inkscape:window-height="753"
     inkscape:window-x="0"
     inkscape:window-y="24"
     inkscape:window-maximized="1"
     showguides="true"
     inkscape:guide-bbox="true">
    <inkscape:grid
       type="xygrid"
       id="grid3820" />
  </sodipodi:namedview>
  <metadata
     id="metadata4117">
    <rdf:RDF>
      <cc:Work
         rdf:about="">
        <dc:format>image/svg+xml</dc:format>
        <dc:type
           rdf:resource="http://purl.org/dc/dcmitype/StillImage" />
        <dc:title></dc:title>
      </cc:Work>
    </rdf:RDF>
  </metadata>
  <g
     id="layer1"
     inkscape:label="Layer 1"
     inkscape:groupmode="layer">
    <rect
       style="opacity:0.3;fill:url(#linearGradient4110);fill-opacity:1;fill-rule:nonzero;stroke:none;stroke-width:1;marker:none;visibility:visible;display:inline;overflow:visible"
       id="rect2879"
       y="42.429947"
       x="7.7378473"
       height="3.5700529"
       width="32.508301" />
    <path
       inkscape:connector-curvature="0"
       style="opacity:0.3;fill:url(#radialGradient3330);fill-opacity:1;fill-rule:nonzero;stroke:none;stroke-width:1;marker:none;visibility:visible;display:inline;overflow:visible"
       id="path2881"
       d="m 7.7378475,42.430102 c 0,0 0,3.569856 0,3.569856 -1.1865002,0.0067 -2.8683795,-0.799823 -2.8683795,-1.785158 0,-0.985333 1.3240446,-1.784697 2.8683795,-1.784698 z" />
    <path
       inkscape:connector-curvature="0"
       style="opacity:0.3;fill:url(#radialGradient3327);fill-opacity:1;fill-rule:nonzero;stroke:none;stroke-width:1;marker:none;visibility:visible;display:inline;overflow:visible"
       id="path2883"
       d="m 40.246148,42.430102 c 0,0 0,3.569856 0,3.569856 1.1865,0.0067 2.86838,-0.799823 2.86838,-1.785158 0,-0.985333 -1.324045,-1.784697 -2.86838,-1.784698 z" />
    <path
       inkscape:connector-curvature="0"
       style="fill:url(#radialGradient4023-5);fill-opacity:1;stroke:url(#linearGradient4025-9);stroke-width:1;stroke-linecap:round;stroke-linejoin:round;stroke-miterlimit:4;stroke-opacity:1;stroke-dasharray:none;stroke-dashoffset:0;display:inline;color:#000000;fill-rule:nonzero;marker:none;visibility:visible;overflow:visible;enable-background:accumulate"
       id="path4160"
       d="M 6.4999609,0.49719893 C 14.520256,0.49719893 41.5,0.5 41.5,0.5 l 4.2e-5,44.002803 c 0,0 -23.333387,0 -35.0000811,0 0,-14.668535 0,-29.33707 0,-44.00560407 z"
       sodipodi:nodetypes="ccccc" />
    <path
       style="fill:none;stroke:url(#linearGradient3988);stroke-width:1;stroke-linecap:round;stroke-linejoin:round;stroke-miterlimit:4;stroke-opacity:1;stroke-dasharray:none;stroke-dashoffset:0;opacity:0.5"
       d="m 40.5,43.5 -33,0 0,-41.9999999 33,0 z"
       id="rect6741-1"
       inkscape:connector-curvature="0"
       sodipodi:nodetypes="ccccc" />
    <path
       inkscape:connector-curvature="0"
       style="opacity:0.05;fill:#000000;fill-opacity:1;fill-rule:evenodd;stroke:none"
       d="M 28.013854,4.4548556 C 16.084163,17.030912 9.2691614,18.806076 7.0023413,19.00182 l 0,4.519444 C 8.7133366,23.227759 13.014124,22.2086 17.594446,18.684046 23.467679,14.164602 30.489183,5.584716 30.489183,5.584716 28.669485,9.9700345 28.077108,24.557933 27.985071,44 l 12.175165,0 c 0.465395,0 0.885286,-0.218174 1.208882,-0.564931 -1.916296,-5.637596 -3.251885,-13.050945 -4.259869,-19.772572 -0.955597,-8.909 0.455462,-16.6980653 0.978619,-19.2076414 l -10.074014,0 z M 7.0023413,26.381226 l 0,4.978451 C 11.29446,31.359677 17.596208,36.864475 21.595269,44 l 3.453947,0 C 21.099278,36.216281 10.278992,26.381226 7.0023413,26.381226 z"
       id="path6711-0-7-1-0" />
    <path
       inkscape:connector-curvature="0"
       style="opacity:0.1;fill:#000000;fill-opacity:1;fill-rule:evenodd;stroke:none"
       d="M 28.013854,3.3249943 C 16.084163,15.901051 9.2691614,17.676215 7.0023413,17.871959 l 0,4.519445 C 8.7133366,22.097897 13.014124,21.078738 17.594446,17.554185 23.467679,13.034741 30.489183,4.4548556 30.489183,4.4548556 28.634155,8.9253172 28.059024,23.988046 27.985071,44 l 12.175165,0 c 0.607917,0 1.132813,-0.364206 1.467928,-0.918012 C 39.562586,37.3638 38.164228,29.567649 37.109249,22.532636 36.153652,13.623635 37.564711,5.8345705 38.087868,3.3249943 l -10.074014,0 z M 7.0023413,25.251365 l 0,4.978451 C 11.520277,30.229816 18.256591,36.317277 22.19971,44 l 3.367598,0 C 22.176813,36.076098 10.441708,25.251365 7.0023413,25.251365 z"
       id="path6711-0-7-4" />
    <path
       style="opacity:0.25;fill:#000000;fill-opacity:1;fill-rule:evenodd;stroke:none"
       d="M 28 2.1875 C 16.070309 14.763557 9.2668201 16.554256 7 16.75 L 7 21.25 C 8.7109953 20.956493 13.013428 19.962054 17.59375 16.4375 C 23.466983 11.918055 30.5 3.3125 30.5 3.3125 C 28.60963 7.8681305 28.024412 23.414766 27.96875 44 L 40.15625 44 C 40.460157 44 40.747746 43.9083 41 43.75 L 41 40.125 C 39.268794 34.635928 38.040265 27.717981 37.09375 21.40625 C 36.138153 12.497249 37.570593 4.6970755 38.09375 2.1875 L 28 2.1875 z M 7 24.125 L 7 29.09375 C 11.737576 29.09375 18.911988 35.791032 22.75 44 L 26.03125 44 C 23.361565 36.023776 10.604461 24.125 7 24.125 z "
       id="path6711-0-2" />
    <path
       style="fill:url(#linearGradient3159);fill-opacity:1;fill-rule:evenodd;stroke:none"
       d="M 28 1 C 16.070309 13.576056 9.2668201 15.366756 7 15.5625 L 7 20.0625 C 8.7109953 19.768994 13.013428 18.743304 17.59375 15.21875 C 23.466983 10.699305 30.5 2.125 30.5 2.125 C 28.574299 6.7657754 28.005957 22.776148 27.96875 43.9375 L 40.28125 43.9375 C 40.544031 43.9375 40.77845 43.875203 41 43.75 L 41 38.90625 C 39.27553 33.420271 38.038036 26.515614 37.09375 20.21875 C 36.138153 11.309749 37.570593 3.5095755 38.09375 1 L 28 1 z M 7 22.90625 L 7 27.90625 C 11.952659 27.90625 19.566711 35.221928 23.25 43.9375 L 26.34375 43.9375 C 24.613064 36.014194 10.77848 22.90625 7 22.90625 z "
       id="path6711-2" />
    <path
       style="opacity:0.1;fill:#000000;fill-opacity:1;fill-rule:evenodd;stroke:none"
       d="M 38.625 1.0625 C 33.936005 4.5720397 18.590986 15.260415 7 13.90625 L 7 23.59375 C 7 23.59375 31.046646 28.003394 41 19.875 L 41 1.3125 C 40.747822 1.1539181 40.460157 1.0625 40.15625 1.0625 L 38.625 1.0625 z "
       id="path6713-2" />
    <path
       style="opacity:0.1;fill:#000000;fill-opacity:1;fill-rule:evenodd;stroke:none"
       d="M 41 24.3125 C 36.686101 29.820329 32.381862 36.794261 29.4375 44 L 33.125 44 C 35.407138 39.263471 38.313026 34.121968 41 30.5 L 41 24.3125 z "
       id="path6715-0" />
  </g>
</svg>
